X:1
T:Title
%%score 1 ( 2 3 4 )
L:1/8
Q:1/4=108
M:4/4
K:Eb
V:1 treble nm="Grand Piano, Soprano"
V:2 bass nm="Choir Pad, Morna, CM"
V:3 bass 
V:4 bass 
V:1
 [EG]2 [EA]2 [EG]2 [EF]2 | [Ec]2 [Dc]2- [Dc][DB] [EB]2 | [EB]2 [Ee]2 [Ge]2 [Fd]2 | [Ec]2 [DB]6 | %4
w: By~Clement~Hamill~Perrot~(1842\-1910) * * *||||
 [DB]2 [EB]2 [EB]2 [EB]2 | [EB]2 [EB]2 [GB]2 [FB]2 | [FA]2 [EG]2 [B,E]2 [DF]2- | [DF]E E6- | %8
w: ||||
 E2 z2 z4 |] %9
w: |
V:2
 [E,B,]2 [E,C]2 [F,B,]2 [F,=A,]2 | z2 ._A,4 z2 | [D,F,]2 [C,G,]2 [C,B,]2 [F,=A,]2 | %3
 [F,=A,]2 [B,,B,]6 | [B,,A,]2 [E,G,]2 [E,G,]2 [F,A,]2 | [F,A,]2 [G,B,]2 [G,E]2 [A,C]2 | %6
 [A,C]2 B,2 [B,,G,]2 [B,,A,]2- | [B,,A,][E,G,] [E,G,]6- | [E,G,]2 z2 z4 |] %9
V:3
 x8 | [E,=A,]2 E,2 z _A, [E,G,]2 | x8 | x8 | x8 | x8 | x8 | x8 | x8 |] %9
V:4
 x8 | z4 E,2 z2 | x8 | x8 | x8 | x8 | x8 | x8 | x8 |] %9

